X:1
T:Lady Augusta Gordon Lennox's
T:Lady Augusta Gordon Lennox's
T:Alexander Walker
C:Alexander Walker
L:1/8
M:4/4
K:Gmin
V:1 treble 
V:1
 F | G>G,D>C B,<G,G,>g | f>cd>B A<FF>A | G<G,D>C B,<(GG>)F | B>F d/c/B/A/ (G2 G) :| g | %6
 d<Gd>c d<GG>f | c>Fc>B A<FF>g | d<Gd>c d<GG>f | A>F d/c/B/A/ (G2 G>)g | d<Gd>c d<GG>g | %11
 c<Fc>B A<FF>A | G>BA>c B>dc>f | d>g^f>a (g2 g) || %14

